X:1
T: Roy's Wife
C:
R:Strathspey
Q: 128
K:D
M:4/4
L:1/16
|:AF3 F3E F3E FB3|AF3 F3D E3D EF3|AF3 E3D d3e f3e|d3B ABdF E3D EF3|
AF3 F3E F3E FB3|AF3 F3D E3D EF3|AF3 E3D d3e f3e|d3B ABdF E3D EF3|
AF3 d3A B3A d3B|AF3 d3A B3A Bd3|AF3 E3D d3e f3e|d3B ABdF E3D EF3|
AF3 d3A B3A d3B|AF3 d3A B3A Bd3|AF3 E3D d3e f3e|1d3B ABdF E3D EB3:|2d3B ABdF E3D D4||
